Suru++-Ubuntu/apps/scalable/foobillardplus.svg

<svg width="256" height="256" version="1.1" viewBox="0 0 67.73 67.73" xmlns="http://www.w3.org/2000/svg" xmlns:xlink="http://www.w3.org/1999/xlink">
 <defs>
  <linearGradient id="linearGradient1108" x1="296" x2="296" y1="-212" y2="236" gradientUnits="userSpaceOnUse">
   <stop style="stop-color:#ffffff" offset="0"/>
   <stop style="stop-color:#ffffff;stop-opacity:.09803922" offset=".125"/>
   <stop style="stop-color:#000000;stop-opacity:.09803922" offset=".925"/>
   <stop style="stop-color:#000000;stop-opacity:.49803922" offset="1"/>
  </linearGradient>
  <clipPath id="clipPath1082-3-73">
   <path d="M 361.9375,-212 C 507.2348,-212 528,-191.28677 528,-46.125 V 70.125 C 528,215.28618 507.2348,236 361.9375,236 H 214.0625 C 68.7652,236 48,215.28618 48,70.125 V -46.125 C 48,-191.28677 68.7652,-212 214.0625,-212 Z" style="fill:#8c59d9"/>
  </clipPath>
  <filter id="filter971" x="-.01" y="-.01" width="1.023" height="1.025" style="color-interpolation-filters:sRGB">
   <feGaussianBlur stdDeviation="1.16"/>
  </filter>
  <filter id="filter977" x="-.02" y="-.03" width="1.046" height="1.05" style="color-interpolation-filters:sRGB">
   <feGaussianBlur stdDeviation="2.32"/>
  </filter>
 </defs>
 <g transform="translate(0,-229.26666)">
  <path transform="matrix(.26970778 0 0 .26970778 -7.1289177 220.56049)" d="m188.96876 45.999995c72.64865 0 83.03125 10.356615 83.03125 82.937505v58.125c0 72.58059-10.3826 82.9375-83.03125 82.9375h-73.9375c-72.648654 0-83.031254-10.35691-83.031254-82.9375v-58.125c0-72.58089 10.3826-82.937505 83.031254-82.937505z" style="filter:url(#filter977);opacity:.02000002"/>
  <path transform="matrix(.26970778 0 0 .26970778 -7.1289177 220.56049)" d="m188.96876 43.999995c72.64865 0 83.03125 10.356615 83.03125 82.937505v58.125c0 72.58059-10.3826 82.9375-83.03125 82.9375h-73.9375c-72.648654 0-83.031254-10.35691-83.031254-82.9375v-58.125c0-72.58089 10.3826-82.937505 83.031254-82.937505z" style="filter:url(#filter971);opacity:.1"/>
  <path d="m43.837426 232.42763c19.593907 0 22.394175 2.79326 22.394175 22.36889v15.67677c0 19.57555-2.800268 22.36888-22.394175 22.36888h-19.94152c-19.593906 0-22.394175-2.79333-22.394175-22.36888v-15.67677c0-19.57563 2.8002681-22.36889 22.394175-22.36889z" style="fill:#7cb342"/>
  <path transform="matrix(.13485389 0 0 .13485389 -4.9712556 261.01666)" d="M 361.9375,-212 C 507.2348,-212 528,-191.28677 528,-46.125 V 70.125 C 528,215.28618 507.2348,236 361.9375,236 H 214.0625 C 68.7652,236 48,215.28618 48,70.125 V -46.125 C 48,-191.28677 68.7652,-212 214.0625,-212 Z" clip-path="url(#clipPath1082-3-73)" style="fill:none;opacity:.4;stroke-linecap:round;stroke-linejoin:round;stroke-width:8;stroke:url(#linearGradient1108)"/>
  <path transform="matrix(.26458333 0 0 .26458333 0 229.26666)" d="m250.32422 155.74023v-59.249996c0-9.248329-0.16557-17.505574-0.59961-24.875-0.21702-3.684712-0.50097-7.146679-0.86523-10.40039-0.36427-3.253712-0.80837-6.297958-1.34571-9.146485-0.53733-2.848527-1.16806-5.501544-1.90429-7.970703-0.73624-2.469159-1.57812-4.755486-2.53907-6.871094-0.96095-2.115607-2.04046-4.059783-3.25195-5.847656-1.21149-1.787872-2.55511-3.418343-4.04297-4.904297-1.02989-1.028574-2.22565-1.900542-3.39844-2.794921l-206.30468 206.63476c1.546161 0.98109 3.138939 1.92255 4.917968 2.72852 2.11807 0.95957 4.406996 1.80005 6.878907 2.53515 2.47191 0.73511 5.126939 1.3659 7.978515 1.90235 2.851577 0.53645 5.899184 0.98014 9.15625 1.34375s6.723729 0.64669 10.41211 0.86328c7.37676 0.43319 15.641473 0.59766 24.898437 0.59766h75.371097c74.05498 0 81.89813-10.60906 84.63867-84.54297 3e-5 -7.3e-4 -3e-5 -0.00123 0-0.00196z" style="fill:#ffffff;opacity:.2"/>
  <ellipse cx="27.927" cy="266.208" rx="7.832" ry="8.405" style="fill:#fcfff9"/>
  <path d="m48.832894 247.88739c-2e-6 2.75288-1.926452 4.98453-4.302849 4.98453s-4.302848-2.23165-4.30285-4.98453c2e-6 -2.75288-0.02037-3.68665 2.356024-3.68665 2.376396 0 6.249673 0.93377 6.249675 3.68665z" style="fill:#fbfbf8"/>
  <path transform="matrix(.26458333 0 0 .26458333 0 229.26666)" d="m163.78711 65.017578c-0.34881 0.074665-0.65343 0.296662-1.00977 0.619141-1.44135 1.304428-1.13 1.76061 4.81055 7.027343 3.49428 3.097928 6.3912 5.651278 6.4375 5.677735 0.04627 0.024491 0.75765-0.698672 1.58008-1.607422 1.42784-1.577764 1.20623-1.896996-4.89649-7.072266-4.43228-3.758655-5.87545-4.868525-6.92187-4.644531z"/>
  <path transform="matrix(.26458333 0 0 .26458333 0 229.26666)" d="m162.61328 81.240234c-0.35479-0.180651-0.68217-0.418291-1.0293-0.61914 0.31015 0.172017 0.54553 0.448997 0.875 0.58789 0.04738 0.019972 0.10655 0.01199 0.1543 0.03125z"/>
  <path d="m40.227247 242.78936c-3.721452 0.0232-7.457985 1.77833-9.827307 5.44101-1.061352 1.64073-1.832954 3.96856-1.818495 5.48804l0.0093 0.97668c0.02219-4e-3 0.450069 2.2623 0.472249 2.2589l3.721668 1.27811c1.420892-2.6911-1.551601-0.25068 1.908977 0.21894 3.020026 0.40982 0.02722 1.17616 3.935269 3.13304 1.265404 0.63363 0.688848 0.49467 0.688848 2.61245 0 2.65098 3.091964-0.3148 1.543337 1.23383l1.855919 0.74568 1.444358-0.48059c3.539482-1.17786 6.165643-3.8234 7.41195-7.46673 0.726122-2.12291 0.723043-5.1444-0.0078-7.31273-1.794124-5.32329-6.553605-8.15653-11.338325-8.12663zm2.870108 2.06189c2.680493-0.0905 5.898096 2.53876 5.146455 4.81624-0.168415 0.51031-0.567817 1.01824-1.014923 1.29088-1.35831 0.82824-3.595055 0.48267-5.208985-0.80512-2.163423-1.72623-2.309029-3.92805-0.327628-4.95267 0.430935-0.22284 0.908693-0.33257 1.405081-0.34933z" style="fill:#fee500"/>
  <path transform="matrix(.26458333 0 0 .26458333 0 229.26666)" d="m110.64648 97.974609c-4.62978-0.05566-9.13997 0.312719-12.394527 1.146485-9.669063 2.477136-16.633101 6.488016-24.021484 13.833986-10.439962 10.37998-15.224164 21.9187-15.199219 36.66797 0.04386 25.89471 18.786369 47.2608 44.9668 51.26562 4.47877 0.68512 15.86366-0.26483 20.90039-1.74414 7.97512-2.34232 15.07895-6.67059 21.64062-13.18555 10.87949-10.802 15.95709-23.67899 15.26367-38.71875l-0.35742-7.73242-0.57617-2.51172-2.38086-6.11523c-5.53307-14.22119-17.34335-25.61597-31.80273-30.68359-3.93586-1.379428-10.08648-2.1511-16.03907-2.222661zm-3.1621 14.572271c6.88112 0.1209 13.64333 2.83624 18.27148 8.10742 11.44916 13.03986 7.69314 33.07463-7.60352 40.55859-12.01797 5.87985-26.18966 1.99755-33.228512-9.10156-6.417056-10.11863-4.911647-23.62155 3.580078-32.11328 5.100246-5.10025 12.099344-7.57208 18.980474-7.45117zm-3.07813 7.66601c-3.52765-8e-3 -7.517652 1.32082-10.550781 3.87305-5.085566 4.27918-2.831672 11.07983 4.103515 12.38086l2.947266 0.55273-2.660156 3.03125c-2.536453 2.88885-3.09372 4.42416-2.6875 7.39453 0.294841 2.15596 3.607817 5.18626 6.113286 5.5918 3.30066 0.53427 9.00478-0.28134 11.73828-1.67969 3.58488-1.83386 6.96679-6.36431 6.96679-9.33203 0-3.40781-3.27703-6.68019-7.48047-7.46875-2.55844-0.47996-3.11883-0.91486-2.63281-2.04883 0.33965-0.79253 1.03788-2.918 1.55274-4.72265 0.79355-2.78147 0.68952-3.55478-0.68555-5.07422-1.51742-1.67673-3.98088-2.4916-6.72461-2.49805zm-1.4082 4.35742c0.5932-0.0152 1.20626 0.0495 1.81836 0.20313 2.48814 0.62449 3.15545 3.7332 1.21679 5.67187-1.12949 1.12948-6.210683 1.46316-7.201169 0.47266-0.324657-0.32462-0.589843-1.52716-0.589843-2.67383 0-2.06574 2.185302-3.60811 4.755862-3.67383zm5.53906 15.79297c4.56433 0 6.31417 3.62641 3.13672 6.50195-1.88724 1.70794-6.40701 1.93676-7.94141 0.40235-2.67059-2.67054 0.27539-6.9043 4.80469-6.9043z"/>
 </g>
</svg>

<svg xmlns="http://www.w3.org/2000/svg" xmlns:xlink="http://www.w3.org/1999/xlink" width="256" height="256" version="1.1" viewBox="0 0 67.73 67.73">
 <defs>
  <linearGradient id="linearGradient1108" x1="296" x2="296" y1="-212" y2="236" gradientUnits="userSpaceOnUse" xlink:href="#linearGradient1013"/>
  <linearGradient id="linearGradient1013">
   <stop offset="0" style="stop-color:#ffffff"/>
   <stop style="stop-color:#ffffff;stop-opacity:0.09803922" offset=".125"/>
   <stop style="stop-color:#000000;stop-opacity:0.09803922" offset=".925"/>
   <stop offset="1" style="stop-color:#000000;stop-opacity:0.49803922"/>
  </linearGradient>
  <clipPath id="clipPath1082-3-73" clipPathUnits="userSpaceOnUse">
   <path d="M 361.9375,-212 C 507.2348,-212 528,-191.28677 528,-46.125 V 70.125 C 528,215.28618 507.2348,236 361.9375,236 H 214.0625 C 68.7652,236 48,215.28618 48,70.125 V -46.125 C 48,-191.28677 68.7652,-212 214.0625,-212 Z" style="fill:#8c59d9"/>
  </clipPath>
  <filter style="color-interpolation-filters:sRGB" id="filter971" width="1.023" height="1.025" x="-.01" y="-.01">
   <feGaussianBlur stdDeviation="1.16"/>
  </filter>
  <filter style="color-interpolation-filters:sRGB" id="filter977" width="1.046" height="1.05" x="-.02" y="-.03">
   <feGaussianBlur stdDeviation="2.32"/>
  </filter>
 </defs>
 <g transform="translate(0,-229.26666)">
  <path d="m 188.96876,45.999995 c 72.64865,0 83.03125,10.356615 83.03125,82.937505 v 58.125 c 0,72.58059 -10.3826,82.9375 -83.03125,82.9375 h -73.9375 C 42.382606,270 32.000006,259.64309 32.000006,187.0625 v -58.125 c 0,-72.58089 10.3826,-82.937505 83.031254,-82.937505 z" transform="matrix(0.26970778,0,0,0.26970778,-7.1289177,220.56049)" style="opacity:0.02000002;filter:url(#filter977)"/>
  <path style="opacity:0.1;filter:url(#filter971)" d="m 188.96876,43.999995 c 72.64865,0 83.03125,10.356615 83.03125,82.937505 v 58.125 c 0,72.58059 -10.3826,82.9375 -83.03125,82.9375 h -73.9375 C 42.382606,268 32.000006,257.64309 32.000006,185.0625 v -58.125 c 0,-72.58089 10.3826,-82.937505 83.031254,-82.937505 z" transform="matrix(0.26970778,0,0,0.26970778,-7.1289177,220.56049)"/>
  <path style="fill:#7cb342" d="m 43.837426,232.42763 c 19.593907,0 22.394175,2.79326 22.394175,22.36889 v 15.67677 c 0,19.57555 -2.800268,22.36888 -22.394175,22.36888 h -19.94152 c -19.5939065,0 -22.3941746,-2.79333 -22.3941746,-22.36888 v -15.67677 c 0,-19.57563 2.8002681,-22.36889 22.3941746,-22.36889 z"/>
  <path d="M 361.9375,-212 C 507.2348,-212 528,-191.28677 528,-46.125 V 70.125 C 528,215.28618 507.2348,236 361.9375,236 H 214.0625 C 68.7652,236 48,215.28618 48,70.125 V -46.125 C 48,-191.28677 68.7652,-212 214.0625,-212 Z" clip-path="url(#clipPath1082-3-73)" transform="matrix(0.13485389,0,0,0.13485389,-4.9712556,261.01666)" style="opacity:0.4;fill:none;stroke:url(#linearGradient1108);stroke-width:8;stroke-linecap:round;stroke-linejoin:round"/>
  <path style="opacity:0.2;fill:#ffffff" d="M 250.32422 155.74023 L 250.32422 96.490234 C 250.32422 87.241905 250.15865 78.98466 249.72461 71.615234 C 249.50759 67.930522 249.22364 64.468555 248.85938 61.214844 C 248.49511 57.961132 248.05101 54.916886 247.51367 52.068359 C 246.97634 49.219832 246.34561 46.566815 245.60938 44.097656 C 244.87314 41.628497 244.03126 39.34217 243.07031 37.226562 C 242.10936 35.110955 241.02985 33.166779 239.81836 31.378906 C 238.60687 29.591034 237.26325 27.960563 235.77539 26.474609 C 234.7455 25.446035 233.54974 24.574067 232.37695 23.679688 L 26.072266 230.31445 C 27.618427 231.29554 29.211205 232.237 30.990234 233.04297 C 33.108304 234.00254 35.39723 234.84302 37.869141 235.57812 C 40.341051 236.31323 42.99608 236.94402 45.847656 237.48047 C 48.699233 238.01692 51.74684 238.46061 55.003906 238.82422 C 58.260972 239.18783 61.727635 239.47091 65.416016 239.6875 C 72.792776 240.12069 81.057489 240.28516 90.314453 240.28516 L 165.68555 240.28516 C 239.74053 240.28516 247.58368 229.6761 250.32422 155.74219 C 250.32425 155.74146 250.32419 155.74096 250.32422 155.74023 z" transform="matrix(0.26458333,0,0,0.26458333,0,229.26666)"/>
  <ellipse style="fill:#fcfff9" cx="27.927" cy="266.208" rx="7.832" ry="8.405"/>
  <path style="fill:#fbfbf8" d="m 48.832894,247.88739 c -2e-6,2.75288 -1.926452,4.98453 -4.302849,4.98453 -2.376397,0 -4.302848,-2.23165 -4.30285,-4.98453 2e-6,-2.75288 -0.02037,-3.68665 2.356024,-3.68665 2.376396,0 6.249673,0.93377 6.249675,3.68665 z"/>
  <path d="M 163.78711 65.017578 C 163.4383 65.092243 163.13368 65.31424 162.77734 65.636719 C 161.33599 66.941147 161.64734 67.397329 167.58789 72.664062 C 171.08217 75.76199 173.97909 78.31534 174.02539 78.341797 C 174.07166 78.366288 174.78304 77.643125 175.60547 76.734375 C 177.03331 75.156611 176.8117 74.837379 170.70898 69.662109 C 166.2767 65.903454 164.83353 64.793584 163.78711 65.017578 z" transform="matrix(0.26458333,0,0,0.26458333,0,229.26666)"/>
  <path d="M 162.61328 81.240234 C 162.25849 81.059583 161.93111 80.821943 161.58398 80.621094 C 161.89413 80.793111 162.12951 81.070091 162.45898 81.208984 C 162.50636 81.228956 162.56553 81.220974 162.61328 81.240234 z" transform="matrix(0.26458333,0,0,0.26458333,0,229.26666)"/>
  <path style="fill:#fee500" d="m 40.227247,242.78936 c -3.721452,0.0232 -7.457985,1.77833 -9.827307,5.44101 -1.061352,1.64073 -1.832954,3.96856 -1.818495,5.48804 l 0.0093,0.97668 c 0.02219,-0.004 0.450069,2.2623 0.472249,2.2589 l 3.721668,1.27811 c 1.420892,-2.6911 -1.551601,-0.25068 1.908977,0.21894 3.020026,0.40982 0.02722,1.17616 3.935269,3.13304 1.265404,0.63363 0.688848,0.49467 0.688848,2.61245 0,2.65098 3.091964,-0.3148 1.543337,1.23383 v 0 l 1.855919,0.74568 1.444358,-0.48059 c 3.539482,-1.17786 6.165643,-3.8234 7.41195,-7.46673 0.726122,-2.12291 0.723043,-5.1444 -0.0078,-7.31273 -1.794124,-5.32329 -6.553605,-8.15653 -11.338325,-8.12663 z m 2.870108,2.06189 c 2.680493,-0.0905 5.898096,2.53876 5.146455,4.81624 -0.168415,0.51031 -0.567817,1.01824 -1.014923,1.29088 -1.35831,0.82824 -3.595055,0.48267 -5.208985,-0.80512 -2.163423,-1.72623 -2.309029,-3.92805 -0.327628,-4.95267 0.430935,-0.22284 0.908693,-0.33257 1.405081,-0.34933 z"/>
  <path d="m 110.64648,97.974609 c -4.62978,-0.05566 -9.13997,0.312719 -12.394527,1.146485 -9.669063,2.477136 -16.633101,6.488016 -24.021484,13.833986 -10.439962,10.37998 -15.224164,21.9187 -15.199219,36.66797 0.04386,25.89471 18.786369,47.2608 44.9668,51.26562 4.47877,0.68512 15.86366,-0.26483 20.90039,-1.74414 7.97512,-2.34232 15.07895,-6.67059 21.64062,-13.18555 10.87949,-10.802 15.95709,-23.67899 15.26367,-38.71875 l -0.35742,-7.73242 -0.57617,-2.51172 -2.38086,-6.11523 c -5.53307,-14.22119 -17.34335,-25.61597 -31.80273,-30.68359 -3.93586,-1.379428 -10.08648,-2.1511 -16.03907,-2.222661 z m -3.1621,14.572271 c 6.88112,0.1209 13.64333,2.83624 18.27148,8.10742 11.44916,13.03986 7.69314,33.07463 -7.60352,40.55859 -12.01797,5.87985 -26.18966,1.99755 -33.228512,-9.10156 -6.417056,-10.11863 -4.911647,-23.62155 3.580078,-32.11328 5.100246,-5.10025 12.099344,-7.57208 18.980474,-7.45117 z m -3.07813,7.66601 c -3.52765,-0.008 -7.517652,1.32082 -10.550781,3.87305 -5.085566,4.27918 -2.831672,11.07983 4.103515,12.38086 l 2.947266,0.55273 -2.660156,3.03125 c -2.536453,2.88885 -3.09372,4.42416 -2.6875,7.39453 0.294841,2.15596 3.607817,5.18626 6.113286,5.5918 3.30066,0.53427 9.00478,-0.28134 11.73828,-1.67969 3.58488,-1.83386 6.96679,-6.36431 6.96679,-9.33203 0,-3.40781 -3.27703,-6.68019 -7.48047,-7.46875 -2.55844,-0.47996 -3.11883,-0.91486 -2.63281,-2.04883 0.33965,-0.79253 1.03788,-2.918 1.55274,-4.72265 0.79355,-2.78147 0.68952,-3.55478 -0.68555,-5.07422 -1.51742,-1.67673 -3.98088,-2.4916 -6.72461,-2.49805 z m -1.4082,4.35742 c 0.5932,-0.0152 1.20626,0.0495 1.81836,0.20313 2.48814,0.62449 3.15545,3.7332 1.21679,5.67187 -1.12949,1.12948 -6.210683,1.46316 -7.201169,0.47266 -0.324657,-0.32462 -0.589843,-1.52716 -0.589843,-2.67383 0,-2.06574 2.185302,-3.60811 4.755862,-3.67383 z m 5.53906,15.79297 c 4.56433,0 6.31417,3.62641 3.13672,6.50195 -1.88724,1.70794 -6.40701,1.93676 -7.94141,0.40235 -2.67059,-2.67054 0.27539,-6.9043 4.80469,-6.9043 z" transform="matrix(0.26458333,0,0,0.26458333,0,229.26666)"/>
 </g>
</svg>
